packages/gestalt-icons-android/vr-theme/ic_vr_scale_gestalt.svg

<svg width="24" height="24" viewBox="0 0 24 24" fill="none" xmlns="http://www.w3.org/2000/svg">
<path d="M1 1V8H3V4.41422L10.5858 12L3 19.5858V16H1V23H7.99995V21H4.41421L12 13.4142L19.5858 21H16V23H23V16H21V19.5858L13.4142 12L21 4.41422V8H23V1H16V3H19.5858L12 10.5858L4.41422 3H7.99995V1H1Z" fill="black"/>
</svg>

<svg xmlns="http://www.w3.org/2000/svg" width="24" height="24"><path d="M1 1v7h2V4.41L10.59 12 3 19.59V16H1v7h7v-2H4.41L12 13.41 19.59 21H16v2h7v-7h-2v3.59L13.41 12 21 4.41V8h2V1h-7v2h3.59L12 10.59 4.41 3H8V1z"/></svg>
